X: 15260
T: Girl That I Love, The
R: jig
M: 6/8
K: Dmajor
A/B/c|dcA GFE|GEE E2D|cBA GED|EDD D2 A/B/c|
dcA GED|GEE E2D|cBA GED|EDD D2||
F/G/|Add Add|A=cc Acc|Add Add|cBc d2 e|
fed cAG|AEE G/A/Bd|cBA GED|EDD D2|

